X:1
T:Rainy Afternoon Piano
M:4/4
L:1/8
Q:1/4=75
K:Am
%%MIDI program 0
|: [A,2E2A2] z2 [A,2E2C3] z2 | [G,2D2G2] z2 [G,2D2B,2] z2 |
[F,2C2F2] z2 [F,2A,2C2] z2 | [E,2B,2E2] z2 [E,2G,2B,2] z2 |
[A,2E2A2] z2 [C2E2A2] z2 | [D2F2A2] z2 [D2F2B2] z2 |
[F,2C2F2] z2 [E,2B,2E2] z2 | [A,2E2A2] z4 z2 :|
